public/images/hashed/f9d84cc9539d8f09db74373f982c1722.svg

<svg xmlns="http://www.w3.org/2000/svg" width="80" height="80"><defs><linearGradient id="a" x1="0%" x2="100%" y1="100%" y2="0%"><stop offset="0%" stop-color="#C8511B"/><stop offset="100%" stop-color="#F90"/></linearGradient></defs><g fill="none" fill-rule="evenodd"><path fill="url(#a)" d="M0 0h80v80H0z"/><path fill="#FFF" d="m32.591 32.745-7.909 7.91 7.909 7.909 1.414-1.414-6.495-6.495 6.495-6.496-1.414-1.414ZM14 64h26V16H14v48Zm-2 2h30V14H12v52Zm5.238-26c0 11.383 9.26 20.643 20.643 20.643v-2c-10.279 0-18.643-8.363-18.643-18.643 0-10.28 8.364-18.643 18.643-18.643v-2c-11.383 0-20.643 9.26-20.643 20.643Zm26.469 10.399v2c6.837 0 12.4-5.562 12.4-12.399 0-6.837-5.563-12.4-12.4-12.4v2c5.735 0 10.4 4.666 10.4 10.4s-4.665 10.399-10.4 10.399ZM69 35.853v8.294a2.039 2.039 0 0 1-2.037 2.036h-3.547a21.02 21.02 0 0 1-1.575 3.794l2.511 2.511c.385.384.596.896.596 1.44 0 .544-.211 1.056-.596 1.441l-5.865 5.864c-.769.769-2.111.77-2.88-.001l-2.511-2.51a21.126 21.126 0 0 1-3.793 1.575v3.547a2.04 2.04 0 0 1-2.037 2.037h-4.147v-2h4.147l.037-5.109.744-.197a19.095 19.095 0 0 0 4.719-1.959l.665-.387 3.591 3.59 5.916-5.865-3.59-3.642.388-.665a19.082 19.082 0 0 0 1.959-4.719l.197-.745h5.071l.037-8.33-5.108-.037-.197-.744a19.082 19.082 0 0 0-1.959-4.719l-.388-.666 3.59-3.589-5.865-5.917-3.642 3.59-.665-.387a19.095 19.095 0 0 0-4.719-1.959l-.744-.198v-5.071l-4.099-.037v-2h4.062a2.04 2.04 0 0 1 2.037 2.037v3.547c1.309.399 2.58.927 3.793 1.575l2.512-2.511c.767-.77 2.11-.769 2.879-.001l5.865 5.866c.385.384.596.896.596 1.44 0 .544-.211 1.055-.596 1.44l-2.511 2.511a21.04 21.04 0 0 1 1.575 3.793h3.547A2.04 2.04 0 0 1 69 35.853Z"/></g></svg>

<?xml version="1.0" encoding="UTF-8"?>
<svg width="80px" height="80px" viewBox="0 0 80 80" version="1.1" xmlns="http://www.w3.org/2000/svg" xmlns:xlink="http://www.w3.org/1999/xlink">
    <!-- Generator: Sketch 64 (93537) - https://sketch.com -->
    <title>Icon-Architecture/64/Arch_AWS-EC2-Image-Builder_64</title>
    <desc>Created with Sketch.</desc>
    <defs>
        <linearGradient x1="0%" y1="100%" x2="100%" y2="0%" id="linearGradient-1">
            <stop stop-color="#C8511B" offset="0%"></stop>
            <stop stop-color="#FF9900" offset="100%"></stop>
        </linearGradient>
    </defs>
    <g id="Icon-Architecture/64/Arch_AWS-EC2-Image-Builder_64" stroke="none" stroke-width="1" fill="none" fill-rule="evenodd">
        <g id="Icon-Architecture-BG/64/Compute" fill="url(#linearGradient-1)">
            <rect id="Rectangle" x="0" y="0" width="80" height="80"></rect>
        </g>
        <path d="M32.591,32.745 L24.682,40.655 L32.591,48.564 L34.005,47.15 L27.51,40.655 L34.005,34.159 L32.591,32.745 Z M14,64 L40,64 L40,16 L14,16 L14,64 Z M12,66 L42,66 L42,14 L12,14 L12,66 Z M17.238,40 C17.238,51.383 26.498,60.643 37.881,60.643 L37.881,58.643 C27.602,58.643 19.238,50.28 19.238,40 C19.238,29.72 27.602,21.357 37.881,21.357 L37.881,19.357 C26.498,19.357 17.238,28.617 17.238,40 L17.238,40 Z M43.707,50.399 L43.707,52.399 C50.544,52.399 56.107,46.837 56.107,40 C56.107,33.163 50.544,27.6 43.707,27.6 L43.707,29.6 C49.442,29.6 54.107,34.266 54.107,40 C54.107,45.734 49.442,50.399 43.707,50.399 L43.707,50.399 Z M69,35.853 L69,44.147 C69,45.27 68.086,46.183 66.963,46.183 L63.416,46.183 C63.018,47.492 62.49,48.763 61.841,49.977 L64.352,52.488 C64.737,52.872 64.948,53.384 64.948,53.928 C64.948,54.472 64.737,54.984 64.352,55.369 L58.487,61.233 C57.718,62.002 56.376,62.003 55.607,61.232 L53.096,58.722 C51.883,59.37 50.612,59.898 49.303,60.297 L49.303,63.844 C49.303,64.967 48.389,65.881 47.266,65.881 L43.119,65.881 L43.119,63.881 L47.266,63.881 L47.303,58.772 L48.047,58.575 C49.695,58.139 51.281,57.48 52.766,56.616 L53.431,56.229 L57.022,59.819 L62.938,53.954 L59.348,50.312 L59.736,49.647 C60.601,48.161 61.26,46.573 61.695,44.928 L61.892,44.183 L66.963,44.183 L67,35.853 L61.892,35.816 L61.695,35.072 C61.26,33.427 60.601,31.839 59.736,30.353 L59.348,29.687 L62.938,26.098 L57.073,20.181 L53.431,23.771 L52.766,23.384 C51.281,22.52 49.695,21.861 48.047,21.425 L47.303,21.227 L47.303,16.156 L43.204,16.119 L43.204,14.119 L47.266,14.119 C48.389,14.119 49.303,15.033 49.303,16.156 L49.303,19.703 C50.612,20.102 51.883,20.63 53.096,21.278 L55.608,18.767 C56.375,17.997 57.718,17.998 58.487,18.766 L64.352,24.632 C64.737,25.016 64.948,25.528 64.948,26.072 C64.948,26.616 64.737,27.127 64.352,27.512 L61.841,30.023 C62.49,31.237 63.018,32.508 63.416,33.816 L66.963,33.816 C68.086,33.816 69,34.73 69,35.853 L69,35.853 Z" id="AWS-EC2-Image-Builder_Ikon-64_Squid" fill="#FFFFFF"></path>
    </g>
</svg>
